X:20
T:Peacock's Feather, The
R:hornpipe
D:Frankie Gavin & Alec Finn
D:Joe Holmes & Len Graham: Chaste Muses, Bards & Sages
Z:id:hn-hornpipe-20
M:C|
K:Ddor
AG|FDEC D2DE|FEFA G2^FG|Addc dcAG|FDA,B, C2AG|
FDEC D2DE|FEFA G2^FG|Addc dcAG|F2D2 D2:|
|:AB|c2cA d2dc|dcA^F G2AB|c2Ad dcAG|FDA,B, C2AG|
FDEC D2DE|FEFA G2^FG|Addc dcAG|F2D2 D2:|
<end>
<start>
